public/crests/ac-milan.svg

<?xml version="1.0" encoding="UTF-8" standalone="no"?>
<svg
   xmlns:dc="http://purl.org/dc/elements/1.1/"
   xmlns:cc="http://creativecommons.org/ns#"
   xmlns:rdf="http://www.w3.org/1999/02/22-rdf-syntax-ns#"
   xmlns:svg="http://www.w3.org/2000/svg"
   xmlns="http://www.w3.org/2000/svg"
   xmlns:sodipodi="http://sodipodi.sourceforge.net/DTD/sodipodi-0.dtd"
   xmlns:inkscape="http://www.inkscape.org/namespaces/inkscape"
   inkscape:version="1.0 (4035a4f, 2020-05-01)"
   sodipodi:docname="Logo_of_AC_Milan.svg"
   id="svg860"
   version="1.1"
   fill-rule="evenodd"
   height="566"
   width="361">
  <metadata
     id="metadata866">
    <rdf:RDF>
      <cc:Work
         rdf:about="">
        <dc:format>image/svg+xml</dc:format>
        <dc:type
           rdf:resource="http://purl.org/dc/dcmitype/StillImage" />
      </cc:Work>
    </rdf:RDF>
  </metadata>
  <defs
     id="defs864" />
  <sodipodi:namedview
     inkscape:current-layer="svg860"
     inkscape:window-maximized="1"
     inkscape:window-y="25"
     inkscape:window-x="0"
     inkscape:cy="184.06716"
     inkscape:cx="132.91473"
     inkscape:zoom="1.6578701"
     showgrid="false"
     id="namedview862"
     inkscape:window-height="793"
     inkscape:window-width="1440"
     inkscape:pageshadow="2"
     inkscape:pageopacity="0"
     guidetolerance="10"
     gridtolerance="10"
     objecttolerance="10"
     borderopacity="1"
     bordercolor="#666666"
     pagecolor="#ffffff" />
  <rect
     style=""
     class=""
     stroke="none"
     fill="none"
     y="0"
     x="0"
     height="100%"
     width="100%"
     id="backgroundrect" />
  <g
     id="g858"
     style=""
     class="currentLayer">
    <title
       id="title834">Layer 1</title>
    <g
       class=""
       id="svg_1">
      <path
         id="svg_2"
         d="M308.824,83.46400000000003 C276.307,32.18000000000001 231.19,0.35000000000002285 180.647,-1.1102230246251565e-16 C79.56099999999999,0.5170000000000247 0,127.58000000000004 0,283.08000000000004 C0,360.735 19.92800000000001,431.433 52.461,482.69399999999996 C84.98800000000001,533.956 130.103,565.811 180.64600000000002,566 C231.18899999999996,565.811 276.307,533.956 308.824,482.69399999999996 C341.36,431.433 361.294,360.735 361.294,283.08000000000004 C361.294,205.401 341.36,134.724 308.824,83.46400000000003 z"
         style="stroke:none;fill:#101820;fill-opacity:1" />
      <path
         id="svg_3"
         d="M341.626,174.849 C332.702,141.459 319.76,111.47800000000001 303.842,86.459 C287.759,61.402000000000015 268.871,41.142000000000024 248.063,27.168000000000006 C227.252,13.39100000000002 204.60899999999998,5.724000000000018 180.647,5.724000000000018 C156.68599999999998,5.724000000000018 134.04200000000003,13.39100000000002 113.23100000000001,27.168000000000006 C92.42300000000002,41.142000000000024 73.53500000000001,61.402000000000015 57.45200000000001,86.459 C41.534000000000006,111.47800000000001 28.593000000000004,141.459 19.667999999999992,174.849 C10.751999999999997,208.05600000000004 5.850999999999999,244.678 5.850999999999999,283.171 C5.850999999999999,359.817 25.628,429.4750000000001 57.45200000000001,479.553 C73.53500000000001,504.59800000000007 92.42300000000002,524.8480000000001 113.23100000000001,538.823 C134.04200000000003,552.626 156.68599999999998,560.2760000000001 180.647,560.2760000000001 C204.60899999999998,560.2760000000001 227.252,552.626 248.063,538.823 C268.871,524.8480000000001 287.759,504.59800000000007 303.842,479.553 C335.666,429.4750000000001 355.443,359.817 355.443,283.171 C355.443,244.678 350.542,208.05600000000004 341.626,174.849 z"
         style="stroke:none;fill:#e4002b;fill-opacity:1" />
      <path
         id="svg_4"
         d="M180.647,544.448 C91.28600000000002,543.919 21.423000000000016,426.41499999999996 21.423000000000016,283.171 C21.423000000000016,139.76100000000002 91.28600000000002,22.23400000000001 180.647,21.730000000000018 C270.008,22.23400000000001 339.872,139.76100000000002 339.872,283.171 C339.872,426.41499999999996 270.008,543.919 180.647,544.448 z"
         style="stroke:none;fill:#101820;fill-opacity:1" />
      <path
         id="svg_5"
         d="M180.647,129.372 C240.632,129.372 292.643,161.90500000000003 319.408,209.757 C312.234,170.776 299.822,135.839 283.198,107.566 C256.805,62.769000000000005 220.52299999999997,35.547000000000025 180.647,35.364000000000004 C140.77100000000002,35.547000000000025 104.48900000000002,62.769000000000005 78.09600000000002,107.566 C61.471999999999994,135.839 49.06000000000002,170.776 41.887000000000015,209.757 C68.651,161.90500000000003 120.66199999999999,129.372 180.647,129.372 z"
         style="stroke:none; fill:#ffffff" />
      <path
         id="svg_6"
         d="M180.647,436.798 C120.66199999999999,436.798 68.82200000000002,404.28 42.06600000000002,356.415 C49.06000000000002,395.409 61.471999999999994,430.321 78.09600000000002,458.446 C91.38100000000001,480.74300000000005 106.943,498.977 124.42999999999999,511.403 C141.74099999999999,524.003 160.71499999999997,530.821 180.647,530.821 C200.57999999999998,530.821 219.553,524.003 236.86399999999998,511.403 C254.351,498.977 269.914,480.74300000000005 283.198,458.446 C299.822,430.321 312.234,395.409 319.228,356.415 C292.472,404.28 240.632,436.798 180.647,436.798 z"
         style="stroke:none; fill:#ffffff" />
      <path
         id="svg_7"
         d="M233.036,438.11400000000003 C223.26999999999998,441.384 217.801,448.81899999999996 221.644,459.69399999999996 C224.23399999999998,467.08500000000004 232.00900000000001,471.62 241.57999999999998,468.446 C244.91899999999998,467.29200000000003 248.56,465.28200000000004 249.726,461.509 L249.921,461.60800000000006 C253.128,470.94000000000005 249.921,474.759 246.05899999999997,476.692 C242.24099999999999,478.48900000000003 238.72499999999997,477.56899999999996 236.445,474.89099999999996 L236.41899999999998,474.846 L229.98699999999997,479.18000000000006 C233.716,484.61800000000005 240.704,486.28200000000004 248.40999999999997,483.692 C257.431,480.67500000000007 264.589,472.081 258.572,455.00700000000006 C256.39799999999997,448.76200000000006 250.31799999999998,432.337 233.036,438.11400000000003 zM241.22699999999998,460.79600000000005 C237.497,462.024 232.488,462.044 230.163,455.428 C227.945,449.116 232.954,446.12800000000004 235.45600000000002,445.36 C240.546,443.678 244.062,445.932 245.86399999999998,450.91700000000003 C247.704,456.196 244.654,459.63200000000006 241.22699999999998,460.79600000000005 z"
         style="stroke:none;fill:#101820;fill-opacity:1" />
      <path
         id="svg_8"
         d="M183.438,117.94 C193.651,117.94 202.86899999999997,113.68 209.23899999999998,106.86600000000001 L201.68399999999997,100.13400000000001 C197.161,104.92600000000002 190.66499999999996,107.959 183.438,107.959 C169.74099999999999,107.959 158.62599999999998,97.16300000000001 158.62599999999998,83.816 C158.62599999999998,70.38900000000001 169.74099999999999,59.57400000000001 183.438,59.57400000000001 C190.66499999999996,59.57400000000001 197.161,62.62100000000001 201.68399999999997,67.40900000000002 L209.21999999999997,60.63900000000001 C202.80599999999998,53.857000000000035 193.651,49.59100000000001 183.438,49.59100000000001 C164.09199999999998,49.59100000000001 148.401,64.905 148.401,83.816 C148.401,102.64200000000002 164.09199999999998,117.94 183.438,117.94 z"
         style="stroke:none;fill:#101820;fill-opacity:1" />
      <path
         id="svg_9"
         d="M231.656,90.29600000000002 L239.14100000000002,128.41700000000003 C240.92399999999998,129.15700000000004 242.65699999999998,129.85400000000004 244.433,130.65700000000004 L255.038,105.269 L266.145,142.00800000000004 C270.493,144.74200000000002 274.758,147.75 278.816,150.91000000000003 L259.543,87.44200000000001 L253.52499999999998,82.811 L244.83100000000002,103.744 L237.60399999999998,70.244 L229.243,64.81 L211.784,120.589 C215.05399999999997,121.22200000000004 218.28699999999998,121.928 221.512,122.762 L231.656,90.29600000000002 z"
         style="stroke:none;fill:#101820;fill-opacity:1" />
      <path
         id="svg_10"
         d="M105.658,122.02199999999999 L136.099,110.22800000000001 L139.96699999999998,122.75299999999999 C143.12399999999997,121.918 146.36199999999997,121.22200000000004 149.601,120.589 L132.378,64.81 L119.78000000000002,72.70500000000001 L80.08400000000002,152.85400000000004 C85.074,148.83100000000002 90.38200000000002,145.089 95.854,141.64500000000004 L105.658,122.02199999999999 zM126.64800000000001,79.786 L133.20100000000002,100.906 L112.091,109.08100000000002 L126.64800000000001,79.786 z"
         style="stroke:none;fill:#101820;fill-opacity:1" />
      <path
         id="svg_11"
         d="M193.714,445.64300000000003 C183.438,446.51200000000006 176.281,452.385 177.25099999999998,463.846 C177.94400000000002,471.552 184.339,477.87800000000004 194.41899999999998,477.02 C197.973,476.755 201.949,475.659 204.06,472.352 L204.211,472.452 C204.961,482.26800000000003 200.853,485.22900000000004 196.65699999999998,486.067 C192.51099999999997,486.98699999999997 189.348,485.28600000000006 187.82299999999998,482.135 L187.82299999999998,482.06100000000004 L180.502,484.77 C182.707,490.80500000000006 189.115,494.08299999999997 197.20499999999998,493.446 C206.66899999999998,492.677 215.779,486.067 214.248,468.09299999999996 C213.73699999999997,461.495 211.942,444.19399999999996 193.714,445.64300000000003 zM196.01999999999998,469.51 C192.07,469.86199999999997 187.19299999999998,468.741 186.582,461.741 C186.053,455.01800000000003 191.628,453.39300000000003 194.30599999999998,453.21799999999996 C199.599,452.78200000000004 202.498,455.75700000000006 202.957,461.07900000000006 C203.442,466.655 199.599,469.27 196.01999999999998,469.51 z"
         style="stroke:none;fill:#101820;fill-opacity:1" />
      <path
         id="svg_12"
         d="M154.41199999999998,443.956 C145.332,442.36 137.38400000000001,445.932 135.98900000000003,453.87800000000004 C135.19799999999998,458.149 136.85500000000002,461.452 140.632,464.02200000000005 C132.151,465.86800000000005 131.065,472.03600000000006 130.63600000000002,474.36199999999997 C129.48000000000002,480.71900000000005 132.70600000000002,489.294 146.09499999999997,491.663 C159.83299999999997,493.99300000000005 165.69,485.563 166.776,479.71000000000004 C167.83499999999998,473.706 165.586,470.30899999999997 161.002,467.192 C165.53199999999998,466.03200000000004 167.957,462.88200000000006 168.685,458.88700000000006 C169.80700000000002,452.47300000000007 165.135,445.81899999999996 154.41199999999998,443.956 zM156.62599999999998,478.38200000000006 C156.04899999999998,481.58900000000006 152.808,485.28600000000006 147.478,484.32300000000004 C142.812,483.528 139.687,479.981 140.50599999999997,475.452 C141.39499999999998,470.47300000000007 146.12599999999998,469.05000000000007 149.872,469.76200000000006 C155.567,470.65100000000007 157.247,475.09800000000007 156.62599999999998,478.38200000000006 zM159.087,458.23900000000003 C158.48199999999997,461.528 155.36,463.538 151.32099999999997,462.8500000000001 C146.911,462.044 144.8,458.596 145.269,455.90700000000004 C145.89,452.44800000000004 149.14100000000002,450.58299999999997 153.75,451.352 C157.02299999999997,451.94399999999996 159.716,454.69000000000005 159.087,458.23900000000003 z"
         style="stroke:none;fill:#101820;fill-opacity:1" />
      <path
         id="svg_13"
         d="M105.021,439.419 L103.62600000000002,438.946 L101.645,444.485 L101.711,444.50300000000004 L100.734,447.18000000000006 L102.64300000000001,447.874 C107.68400000000001,449.63200000000006 111.12400000000001,449.63200000000006 113.42300000000002,448.70000000000005 L103.04,478.38200000000006 L112.94100000000002,481.65100000000007 L128.223,438.052 L119.22600000000001,434.995 C118.53000000000002,437.01800000000003 112.51900000000002,441.87 105.021,439.419 z"
         style="stroke:none;fill:#101820;fill-opacity:1" />
      <path
         id="svg_14"
         d="M279.187,304.97700000000003 L279.187,390.30500000000006 C304.024,368.671 321.344,338.69800000000004 326.592,304.97700000000003 L279.187,304.97700000000003 z"
         style="stroke:none; fill:#ffffff" />
      <path
         id="svg_15"
         d="M188.788,426.591 C201.029,425.903 212.906,423.692 224.10199999999998,420.45400000000006 L224.10199999999998,304.97700000000003 L188.788,304.97700000000003 L188.788,426.591 z"
         style="stroke:none; fill:#ffffff" />
      <path
         id="svg_16"
         d="M325.887,256.432 C319.77799999999996,224.649 303.069,196.61400000000003 279.187,176.022 L279.187,256.432 L325.887,256.432 z"
         style="stroke:none; fill:#ffffff" />
      <path
         id="svg_17"
         d="M188.788,256.432 L224.10199999999998,256.432 L224.10199999999998,145.72500000000002 C212.72899999999998,142.49600000000004 201.029,140.284 188.788,139.59700000000004 L188.788,256.432 z"
         style="stroke:none; fill:#ffffff" />
      <path
         id="svg_18"
         d="M279.187,175.873 L279.017,175.873 C279.075,175.92200000000003 279.13,175.973 279.187,176.022 L279.187,175.873 z"
         style="stroke:none; fill:#ffffff" />
      <path
         id="svg_19"
         d="M50.97500000000001,352.14300000000003 L50.97500000000001,214.01 C39.608999999999995,234.63800000000003 32.968,258.136 32.968,283.171 C32.968,308.04 39.608999999999995,331.54 50.97500000000001,352.14300000000003 z"
         style="stroke:none;fill:#e4002b;fill-opacity:1" />
      <path
         id="svg_20"
         d="M231.80700000000002,148.277 L231.80700000000002,264.093 L188.77499999999998,264.093 L188.77499999999998,297.309 L231.80700000000002,297.487 L231.80700000000002,417.895 C246.123,412.80000000000007 259.429,405.452 271.331,396.442 L271.331,297.487 L327.80199999999996,297.487 C328.32599999999996,292.704 328.501,287.94800000000004 328.501,283.171 C328.501,276.707 327.972,270.23 327.097,264.093 L271.331,264.093 L271.331,169.733 C259.429,160.70800000000003 246.123,153.38600000000002 231.80700000000002,148.277 z"
         style="stroke:none;fill:#e4002b;fill-opacity:1" />
      <path
         id="svg_21"
         d="M133.68900000000002,419.427 C142.61399999999998,422.32500000000005 151.70799999999997,424.37199999999996 161.32,425.73300000000006 L161.32,140.43900000000002 C151.70799999999997,141.63 142.61399999999998,143.85700000000003 133.68900000000002,146.755 L133.68900000000002,419.427 z"
         style="stroke:none;fill:#e4002b;fill-opacity:1" />
      <path
         id="svg_22"
         d="M78.60700000000001,386.89099999999996 C87.00500000000001,394.72900000000004 96.10000000000001,401.36400000000003 106.058,407.178 L106.058,159.007 C96.10000000000001,164.627 87.00500000000001,171.428 78.60700000000001,179.279 L78.60700000000001,386.89099999999996 z"
         style="stroke:none;fill:#e4002b;fill-opacity:1" />
    </g>
  </g>
</svg>

<svg xmlns="http://www.w3.org/2000/svg" width="361" height="566" fill-rule="evenodd"><rect width="100%" height="100%" fill="none"/><g class="currentLayer"><title>Layer 1</title><path d="M308.824 83.464C276.307 32.18 231.19.35 180.647 0 79.561.517 0 127.58 0 283.08c0 77.655 19.928 148.353 52.461 199.614 32.527 51.262 77.642 83.117 128.185 83.306 50.543-.189 95.661-32.044 128.178-83.306 32.536-51.261 52.47-121.959 52.47-199.614 0-77.679-19.934-148.356-52.47-199.616" style="stroke:none;fill:#101820;fill-opacity:1"/><path d="M341.626 174.849c-8.924-33.39-21.866-63.371-37.784-88.39-16.083-25.057-34.971-45.317-55.779-59.291-20.811-13.777-43.454-21.444-67.416-21.444s-46.605 7.667-67.416 21.444C92.423 41.142 73.535 61.402 57.452 86.459c-15.918 25.019-28.859 55-37.784 88.39-8.916 33.207-13.817 69.829-13.817 108.322 0 76.646 19.777 146.304 51.601 196.382 16.083 25.045 34.971 45.295 55.779 59.27 20.811 13.803 43.455 21.453 67.416 21.453 23.962 0 46.605-7.65 67.416-21.453 20.808-13.975 39.696-34.225 55.779-59.27 31.824-50.078 51.601-119.736 51.601-196.382 0-38.493-4.901-75.115-13.817-108.322" style="stroke:none;fill:#e4002b;fill-opacity:1"/><path d="M180.647 544.448c-89.361-.529-159.224-118.033-159.224-261.277 0-143.41 69.863-260.937 159.224-261.441 89.361.504 159.225 118.031 159.225 261.441 0 143.244-69.864 260.748-159.225 261.277" style="stroke:none;fill:#101820;fill-opacity:1"/><path d="M180.647 129.372c59.985 0 111.996 32.533 138.761 80.385-7.174-38.981-19.586-73.918-36.21-102.191-26.393-44.797-62.675-72.019-102.551-72.202-39.876.183-76.158 27.405-102.551 72.202-16.624 28.273-29.036 63.21-36.209 102.191 26.764-47.852 78.775-80.385 138.76-80.385m0 307.426c-59.985 0-111.825-32.518-138.581-80.383 6.994 38.994 19.406 73.906 36.03 102.031 13.285 22.297 28.847 40.531 46.334 52.957 17.311 12.6 36.285 19.418 56.217 19.418s38.906-6.818 56.217-19.418c17.487-12.426 33.05-30.66 46.334-52.957 16.624-28.125 29.036-63.037 36.03-102.031-26.756 47.865-78.596 80.383-138.581 80.383" style="stroke:none;fill:#fff"/><path d="M233.036 438.114c-9.766 3.27-15.235 10.705-11.392 21.58 2.59 7.391 10.365 11.926 19.936 8.752 3.339-1.154 6.98-3.164 8.146-6.937l.195.099c3.207 9.332 0 13.151-3.862 15.084-3.818 1.797-7.334.877-9.614-1.801l-.026-.045-6.432 4.334c3.729 5.438 10.717 7.102 18.423 4.512 9.021-3.017 16.179-11.611 10.162-28.685-2.174-6.245-8.254-22.67-25.536-16.893m8.191 22.682c-3.73 1.228-8.739 1.248-11.064-5.368-2.218-6.312 2.791-9.3 5.293-10.068 5.09-1.682 8.606.572 10.408 5.557 1.84 5.279-1.21 8.715-4.637 9.879M183.438 117.94c10.213 0 19.431-4.26 25.801-11.074l-7.555-6.732c-4.523 4.792-11.019 7.825-18.246 7.825-13.697 0-24.812-10.796-24.812-24.143 0-13.427 11.115-24.242 24.812-24.242a25.06 25.06 0 0 1 18.246 7.835l7.536-6.77c-6.414-6.782-15.569-11.048-25.782-11.048-19.346 0-35.037 15.314-35.037 34.225 0 18.826 15.691 34.124 35.037 34.124m48.218-27.644 7.485 38.121c1.783.74 3.516 1.437 5.292 2.24l10.605-25.388 11.107 36.739a155 155 0 0 1 12.671 8.902l-19.273-63.468-6.018-4.631-8.694 20.933-7.227-33.5-8.361-5.434-17.459 55.779c3.27.633 6.503 1.339 9.728 2.173zm-125.998 31.726 30.441-11.794 3.868 12.525c3.157-.835 6.395-1.531 9.634-2.164L132.378 64.81l-12.598 7.895-39.696 80.149c4.99-4.023 10.298-7.765 15.77-11.209zm20.99-42.236 6.553 21.12-21.11 8.175zm67.066 365.857c-10.276.869-17.433 6.742-16.463 18.203.693 7.706 7.088 14.032 17.168 13.174 3.554-.265 7.53-1.361 9.641-4.668l.151.1c.75 9.816-3.358 12.777-7.554 13.615-4.146.92-7.309-.781-8.834-3.932v-.074l-7.321 2.709c2.205 6.035 8.613 9.313 16.703 8.676 9.464-.769 18.574-7.379 17.043-25.353-.511-6.598-2.306-23.899-20.534-22.45m2.306 23.867c-3.95.352-8.827-.769-9.438-7.769-.529-6.723 5.046-8.348 7.724-8.523 5.293-.436 8.192 2.539 8.651 7.861.485 5.576-3.358 8.191-6.937 8.431m-41.608-25.554c-9.08-1.596-17.028 1.976-18.423 9.922-.791 4.271.866 7.574 4.643 10.144-8.481 1.846-9.567 8.014-9.996 10.34-1.156 6.357 2.07 14.932 15.459 17.301 13.738 2.33 19.595-6.1 20.681-11.953 1.059-6.004-1.19-9.401-5.774-12.518 4.53-1.16 6.955-4.31 7.683-8.305 1.122-6.414-3.55-13.068-14.273-14.931m2.214 34.426c-.577 3.207-3.818 6.904-9.148 5.941-4.666-.795-7.791-4.342-6.972-8.871.889-4.979 5.62-6.402 9.366-5.69 5.695.889 7.375 5.336 6.754 8.62m2.461-20.143c-.605 3.289-3.727 5.299-7.766 4.611-4.41-.806-6.521-4.254-6.052-6.943.621-3.459 3.872-5.324 8.481-4.555 3.273.592 5.966 3.338 5.337 6.887m-54.066-18.82-1.395-.473-1.981 5.539.066.018-.977 2.677 1.909.694c5.041 1.758 8.481 1.758 10.78.826l-10.383 29.682 9.901 3.269 15.282-43.599-8.997-3.057c-.696 2.023-6.707 6.875-14.205 4.424" style="stroke:none;fill:#101820;fill-opacity:1"/><path d="M279.187 304.977v85.328c24.837-21.634 42.157-51.607 47.405-85.328zm-90.399 121.614c12.241-.688 24.118-2.899 35.314-6.137V304.977h-35.314zm137.099-170.159c-6.109-31.783-22.818-59.818-46.7-80.41v80.41zm-137.099 0h35.314V145.725c-11.373-3.229-23.073-5.441-35.314-6.128zm90.399-80.559h-.17l.17.149z" style="stroke:none;fill:#fff"/><path d="M50.975 352.143V214.01c-11.366 20.628-18.007 44.126-18.007 69.161 0 24.869 6.641 48.369 18.007 68.972m180.832-203.866v115.816h-43.032v33.216l43.032.178v120.408c14.316-5.095 27.622-12.443 39.524-21.453v-98.955h56.471c.524-4.783.699-9.539.699-14.316 0-6.464-.529-12.941-1.404-19.078h-55.766v-94.36c-11.902-9.025-25.208-16.347-39.524-21.456m-98.118 271.15c8.925 2.898 18.019 4.945 27.631 6.306V140.439c-9.612 1.191-18.706 3.418-27.631 6.316zm-55.082-32.536c8.398 7.838 17.493 14.473 27.451 20.287V159.007c-9.958 5.62-19.053 12.421-27.451 20.272z" style="stroke:none;fill:#e4002b;fill-opacity:1"/></g></svg>
